packages/core/src/svgs/vai.svg

<svg width="24" height="24" viewBox="0 0 24 24" fill="none" xmlns="http://www.w3.org/2000/svg">
<g clip-path="url(#clip0_31_20312)">
<path d="M0 0H24V24H0V0Z" fill="#F0F3FA"/>
<path d="M7.73577 6.96005L11.4343 10.5772C11.4667 10.6091 11.4925 10.6471 11.51 10.6891C11.5276 10.731 11.5366 10.776 11.5366 10.8215C11.5366 10.8669 11.5276 10.912 11.51 10.9539C11.4925 10.9958 11.4667 11.0339 11.4343 11.0658L7.73148 14.6915C7.66431 14.7567 7.57438 14.7931 7.48077 14.7931C7.38716 14.7931 7.29723 14.7567 7.23006 14.6915L3.53148 11.0701C3.49909 11.0382 3.47336 11.0001 3.4558 10.9582C3.43824 10.9162 3.4292 10.8712 3.4292 10.8258C3.4292 10.7803 3.43824 10.7353 3.4558 10.6934C3.47336 10.6514 3.49909 10.6134 3.53148 10.5815L7.23434 6.96005C7.30152 6.89486 7.39145 6.8584 7.48505 6.8584C7.57866 6.8584 7.66859 6.89486 7.73577 6.96005ZM12.2529 11.4515L15.9515 15.0729C15.9839 15.1048 16.0096 15.1428 16.0272 15.1848C16.0447 15.2267 16.0538 15.2717 16.0538 15.3172C16.0538 15.3627 16.0447 15.4077 16.0272 15.4496C16.0096 15.4916 15.9839 15.5296 15.9515 15.5615L12.2486 19.1829C12.1815 19.2481 12.0915 19.2846 11.9979 19.2846C11.9043 19.2846 11.8144 19.2481 11.7472 19.1829L8.04863 15.5658C8.01623 15.5339 7.9905 15.4958 7.97295 15.4539C7.95539 15.412 7.94634 15.3669 7.94634 15.3215C7.94634 15.276 7.95539 15.231 7.97295 15.1891C7.9905 15.1471 8.01623 15.1091 8.04863 15.0772L11.7515 11.4515C11.8187 11.3863 11.9086 11.3498 12.0022 11.3498C12.0958 11.3498 12.1857 11.3863 12.2529 11.4515ZM16.7701 6.96005L20.4686 10.5772C20.501 10.6091 20.5267 10.6471 20.5443 10.6891C20.5619 10.731 20.5709 10.776 20.5709 10.8215C20.5709 10.8669 20.5619 10.912 20.5443 10.9539C20.5267 10.9958 20.501 11.0339 20.4686 11.0658L16.7658 14.6915C16.6986 14.7567 16.6087 14.7931 16.5151 14.7931C16.4214 14.7931 16.3315 14.7567 16.2643 14.6915L12.5658 11.0701C12.5334 11.0382 12.5076 11.0001 12.4901 10.9582C12.4725 10.9162 12.4635 10.8712 12.4635 10.8258C12.4635 10.7803 12.4725 10.7353 12.4901 10.6934C12.5076 10.6514 12.5334 10.6134 12.5658 10.5815L16.2686 6.96005C16.3358 6.89486 16.4257 6.8584 16.5193 6.8584C16.6129 6.8584 16.7029 6.89486 16.7701 6.96005Z" fill="url(#paint0_linear_31_20312)"/>
</g>
<defs>
<linearGradient id="paint0_linear_31_20312" x1="19.2558" y1="8.47291" x2="9.42863" y2="17.6786" gradientUnits="userSpaceOnUse">
<stop stop-color="#5C84F9"/>
<stop offset="0.28" stop-color="#5D70F8"/>
<stop offset="0.57" stop-color="#5F5BF6"/>
<stop offset="1" stop-color="#6349F4"/>
</linearGradient>
<clipPath id="clip0_31_20312">
<rect width="24" height="24" fill="white"/>
</clipPath>
</defs>
</svg>

<svg xmlns="http://www.w3.org/2000/svg" width="24" height="24" fill="none" viewBox="0 0 24 24"><g clip-path="url(#a)"><path fill="#F0F3FA" d="M0 0h24v24H0z"/><path fill="url(#b)" d="m7.736 6.96 3.698 3.617a.34.34 0 0 1 0 .489L7.731 14.69a.36.36 0 0 1-.5 0l-3.7-3.62a.343.343 0 0 1 0-.49l3.703-3.62a.36.36 0 0 1 .502-.001m4.517 4.491 3.698 3.622a.343.343 0 0 1 0 .489l-3.702 3.62a.36.36 0 0 1-.502 0L8.05 15.567a.343.343 0 0 1 0-.489l3.703-3.626a.36.36 0 0 1 .5 0M16.77 6.96l3.699 3.617a.343.343 0 0 1 0 .489l-3.703 3.625a.36.36 0 0 1-.502 0l-3.698-3.62a.34.34 0 0 1 0-.49l3.703-3.62a.36.36 0 0 1 .501-.001"/></g><defs><linearGradient id="b" x1="19.256" x2="9.429" y1="8.473" y2="17.679" gradientUnits="userSpaceOnUse"><stop stop-color="#5C84F9"/><stop offset=".28" stop-color="#5D70F8"/><stop offset=".57" stop-color="#5F5BF6"/><stop offset="1" stop-color="#6349F4"/></linearGradient><clipPath id="a"><path fill="#fff" d="M0 0h24v24H0z"/></clipPath></defs></svg>
